X:524
T:Marquis of Huntly Snuff Mill
R:Slow Strathspey
C:William Marshall
B:The Athole Collection
M:C
L:1/8
Q:1/4=140
K:F
C<F ~F>A G>F D2|C<F ~F>A cd/e/|d>cf>A B/A/G/F/ D2|C>FA>F G2F2:|
c<f f>a g>f d2|c<f ~f>a g>af>c|d<f c>A B/A/G/F/ D2|C>FA>F G2F2|
c<f ~f>a g>f d2|c<f ~f>a g>af>a|d>fA>c B/A/G/F/ Df/g/|a<Fc>A G2~F2||

